X:1
T:Ay me, the fatal arrow - Morley
T:James Gibb editions
T:#
%%score [ 1 2 { 3 | 4 } 5 ]
L:1/8
Q:1/4=107
M:4/4
K:Bb
V:1 treble nm="Soprano" snm="S"
V:2 treble nm="Alto" snm="A"
V:3 treble-8 nm="Tenor I" snm="T"
V:4 treble-8 
V:5 bass nm="Bass" snm="B"
V:1
 z4 d4- | d4"^Ay me, the fatal arrow" A4 | z2 B2 c2 d2 |[M:3/2] e8 !fermata!d4 | z2 B4 c4 B2 | %5
w: Ay|* me,|the fa- tal|ar- row|That drives ev'n|
[M:4/4] A2 G2 A4 | G8 | z4 d4- | d4 A4 | z2 B2 c2 d2 |[M:3/2] e8 !fermata!d4 |[M:3/2] z2 B4 c4 B2 | %12
w: to the mar-|row,|Cu\-|* pid|from out his|qui- ver|Hath pluck'd and|
[M:4/4] A2 G2 A4 | G8 x4 | d6 dd x8 |[M:3/2] c6 c2 d4 |[M:4/4] B4 c2 c2 | d4 G2 d2 x4 | %18
w: pierc'd my li-|ver.|The blood through|which the fell|ven- om close|creep- eth, close|
[M:3/2] d4 =B4 z4 x |:[M:4/4] z2 d2 f4 x5 | z2 F2 c4- x4 | c2 (BA) G4- | G2 A2 B4- | %23
w: creep- eth|A- las|ev'n though|* mine * eyes,|* my heart,|
[M:4/4] B2 (Bc) d4- | d2 B2 A4 |1 B4 z4 :|2 =B8 |]1 x8 :|2 x8 |] %29
w: * my * heart|* out- weep-|eth.|\-eth.|||
V:2
 G8- | G4 ^F4 | z2 G2 G2 G2 |[M:3/2] G8 !fermata!G4 | z2"^Thomas Morley\n(1557-1603)" G4 G4 G2 | %5
w: Ay|* me,|the fa- tal|ar- row|That drives ev'n|
[M:4/4] ^F2 G4 F2 | G8 | G8- | G4 ^F4 | z2 G2 G2 G2 |[M:3/2] G8 !fermata!G4 |[M:3/2] z2 G4 G4 G2 | %12
w: to the mar-|row,|Cu\-|* pid|from out his|qui- ver|Hath pluck'd and|
[M:4/4] ^F2 G4 F2 | G8 x4 | B2 AG ^F2 G2 x8 |[M:3/2] G2 A3 G A2 B2 F2 |[M:4/4] G2 FG E (FGA) | %17
w: pierc'd my li-|ver.|The blood through which the|fell ven- om close creep- eth,|the blood through which the * *|
 B2 B3 A G2 x4 |[M:3/2] ^F4 G2 G2 _B4- x |:[M:4/4] B4 z2 B2 x5 | A4 z2 C2 x4 | E6 (EF) | G6 (FE) | %23
w: fell ven- om close|creep- eth A- las,|* a-|las ev'n|though mine *|eyes, my *|
[M:4/4] D6 =E2 | (^F2 G4 F2) |1 G2 G2 B4 :|2 G8 |]1 x8 :|2 x8 |] %29
w: heart out-|weep\- * *|eth. A- las|\-eth.|||
V:3
 d8 | d8 | z2 d2 e2 d2 |[M:4/4] c8 x4 | !fermata!!courtesy!=B4 z2 d4 x2 |[M:4/4] e4 d2 x2 | %6
w: Ay|me,|the fa- tal|ar-|row That|drives ev'n|
[M:4/4][K:treble-8] d2 G2 d4 | d8 | d8 | d8 | z2 d2 e2 d2 x4 |[M:4/4] c8 x4 | %12
w: to the mar-|row,|Cu-|pid|from out his|qui-|
 !fermata!!courtesy!=B4 x4 |[M:3/2][K:treble-8] z2 d4 e4 d2 |[M:3/2] d2 G2 d4 d8 | d2 dd d2 d2 x4 | %16
w: ver|Hath pluck'd and|pierc'd my li- ver.|The blood through which the|
 x8 |[M:3/2][K:treble-8] =e2 f3 g f2 f2 d2 |[M:3/2] _e2 fe g2 g2 g2 d3 |: d d2 d4 d4 z2 | %20
w: |fell ven- om close creep- eth,|the blood through which the fell ven-|om close creep- eth|
[M:3/2] g2 x10 |[M:4/4][K:treble-8] f4 B2 d2- | d2 (cB) A3 B | c6 B2 | G6 A2 |1 %25
w: A-|las ev'n though|* mine * eyes, my|heart, my|heart, my|
[M:4/4][K:treble-8] Bc (d4 B2 :|2 A2 G2 A4) |]1 G4 z2 g2 :|2 G8 |] %29
w: heart out- weep\- *||eth. A\-|\-eth.|
V:4
 B8 | A8 | z2 G2 G2 G2 |[M:4/4] G8 !fermata!G4 | z2 G4 G4 G2 |[M:4/4] x8 | %6
w: Ay|me,|the fa- tal|ar- row|That drives ev'n||
[M:4/4][K:treble-8] A2 c2 A4 | =B8 | _B8 | A8 | z2 G2 G2 G2 x4 |[M:4/4] G8 !fermata!G4 | x8 | %13
w: to the mar-|row,|Cu-|pid|from out his|qui- ver||
[M:3/2][K:treble-8] z2 G4 G4 G2 |[M:3/2] A2 c2 A4 x8 | =B8 x4 | G2 A_B A2 B2 | %17
w: Hath pluck'd and|pierc'd my li-|ver.|The blood through which the|
[M:3/2][K:treble-8] c2 c3 c c2 B2 B2 |[M:3/2] B2 BG G2 c2 x5 |: B2 G3 A B2 x5 | %20
w: fell ven- om close creep- eth,|the blood through which the|fell ven- om close|
[M:3/2] A4 G4 G2 d2- |[M:4/4][K:treble-8] d2 z2 d2 f2- | f2 (ed) c4- | c2 d2 e4- | e2 (dc) B2 c2 |1 %25
w: creep- eth A- las|* ev'n though|* mine * eyes,|* my heart,|* my * heart, my|
[M:4/4][K:treble-8] d2 (cB) A2 G2 :|2 d8 |]1 d4 G2 d2 :|2 d8 |] %29
w: heart, my * heart out-|weep-|eth. A- las|\-eth.|
V:5
 G,8 | D,8 | z2 G,2 C,2 =B,,2 |[M:3/2] C,8 !fermata!G,4 | z2 G,,4 C,4 G,,2 |[M:4/4] D,2 E,2 D,4 | %6
w: Ay|me,|the fa- tal|ar- row|That drives ev'n|to the mar-|
 G,,8 | G,8 | D,8 | z2 G,2 C,2 =B,,2 |[M:3/2] C,8 !fermata!G,4 |[M:3/2] z2 G,,4 C,4 G,,2 | %12
w: row,|Cu-|pid|from out his|qui- ver|Hath pluck'd and|
[M:4/4] D,2 E,2 D,4 | G,,8 x4 | G,2 F,G, D,2 G,2 x8 |[M:3/2] C,2 F,3 E, F,2 B,,2 B,,2 | %16
w: pierc'd my li-|ver.|The blood through which the|fell ven- om close creep- eth,|
[M:4/4] E,2 D,E, C,2 C,2 | G,2 G,3 ^F, G,2 x4 |[M:3/2] D,4 G,,4 z2 G,2 x |:[M:4/4] B,4 z2 B,,2 x5 | %20
w: the blood through which the|fell ven- om close|creep- eth A-|las ev'n|
 F,6 (E,D,) x4 | C,6 D,2 | E,6 (D,C,) |[M:4/4] B,,6 C,2 | D,8 |1 G,,4 z2 G,2 :|2 G,,8 |]1 x8 :|2 %28
w: though mine *|eyes, my|heart, my *|heart out-|weep-|eth. A\-|\-eth.||
 x8 |] %29
w: |

